X: 38071
T: Spirit Of Whiskey, The
R: slip jig
M: 9/8
K: Aminor
|:e2 d ecA ecA|e2 d ecA d2 G|e2 d ecA ecA|ded de/d/c B2 G:|
|:c2 d efe ded|c2 d efe d2 G|c2 d efe def|gaf efe dBG:|

